X: 2
T: Chanter's Song
Z: ceolachan
S: https://thesession.org/tunes/2082#setting15472
R: polka
M: 2/4
L: 1/8
K: Ddor
|: D2 D2 A2 GE | D2 D2 c2 Bc | d2 A2 A2 GA | c2 Bc AGFE |D2 D2 A2 GE | D2 D2 c2 Bc | d2 A2 AGFE | D4 D4 :||: A3 B c3 B | AGAB c2 Bc | d2 A2 A2 GA | c2 Bc AGFE |D2 D2 A2 GE | D2 D2 c2 Bc | d2 A2 AGFE | D4 D4 :|
